build/img/sprite_auto.svg

<svg xmlns="http://www.w3.org/2000/svg" xmlns:xlink="http://www.w3.org/1999/xlink"><symbol id="icon-cart" viewBox="0 0 20 18">
<path fill-rule="evenodd" clip-rule="evenodd" d="M0 1C0 0.447715 0.447715 0 1 0H19C19.5523 0 20 0.447715 20 1V17C20 17.5523 19.5523 18 19 18H1C0.447715 18 0 17.5523 0 17V1ZM2 2V16H18V2H2ZM6 4C6.55228 4 7 4.44772 7 5C7 5.79565 7.31607 6.55871 7.87868 7.12132C8.44129 7.68393 9.20435 8 10 8C10.7956 8 11.5587 7.68393 12.1213 7.12132C12.6839 6.55871 13 5.79565 13 5C13 4.44772 13.4477 4 14 4C14.5523 4 15 4.44772 15 5C15 6.32608 14.4732 7.59785 13.5355 8.53553C12.5979 9.47322 11.3261 10 10 10C8.67392 10 7.40215 9.47322 6.46447 8.53553C5.52678 7.59785 5 6.32608 5 5C5 4.44772 5.44772 4 6 4Z"/>
</symbol><symbol id="icon-logo" viewBox="0 0 66 66">
<path fill-rule="evenodd" clip-rule="evenodd" d="M10.1262 10.1191L33 0.644445L55.8738 10.1191L65.3514 33L55.8738 55.8809L33 65.3556L10.1262 55.8809L0.648582 33L10.1262 10.1191ZM33 0L56.3345 9.66548L66 33L56.3345 56.3345L33 66L9.66548 56.3345L0 33L9.66548 9.66548L33 0ZM28.5672 26.4166C27.948 26.2882 27.1848 26.224 26.2776 26.224C24.7944 26.224 23.4552 26.5094 22.26 27.0802C21.0792 27.651 20.1504 28.4573 19.4736 29.499C18.7968 30.5265 18.4584 31.7109 18.4584 33.0523C18.4584 34.4365 18.7896 35.6638 19.452 36.7341C20.1144 37.8043 21.036 38.6391 22.2168 39.2385C23.412 39.8236 24.7656 40.1161 26.2776 40.1161C27.1272 40.1161 27.876 40.0448 28.524 39.9021C29.1864 39.7593 29.892 39.5096 30.6408 39.1529C30.7272 39.0958 30.7848 39.0458 30.8136 39.003C30.8424 38.9602 30.864 38.8532 30.8784 38.6819L31.0944 36.3274C31.0944 36.2845 31.044 36.2631 30.9432 36.2631C30.8712 36.2631 30.8352 36.2774 30.8352 36.3059C30.4464 37.4761 29.8848 38.3466 29.1504 38.9174C28.416 39.4882 27.4584 39.7736 26.2776 39.7736C25.1688 39.7736 24.1392 39.4739 23.1888 38.8746C22.2528 38.2752 21.504 37.4618 20.9424 36.4344C20.3952 35.3926 20.1216 34.251 20.1216 33.0095C20.1216 31.7109 20.3736 30.5764 20.8776 29.6061C21.3816 28.6214 22.0944 27.8651 23.016 27.3371C23.9376 26.8091 25.0032 26.5451 26.2128 26.5451C28.5168 26.5451 30 27.7366 30.6624 30.1198C30.6768 30.1626 30.72 30.184 30.792 30.184C30.8784 30.1697 30.9216 30.1412 30.9216 30.0984L30.6624 27.5511C30.6336 27.3799 30.612 27.2729 30.5976 27.2301C30.5832 27.1872 30.5256 27.1373 30.4248 27.0802C29.8056 26.7663 29.1864 26.5451 28.5672 26.4166ZM47.8678 39.7094C47.8678 39.6238 47.8462 39.581 47.803 39.581C47.2558 39.581 46.8526 39.5453 46.5934 39.4739C46.3342 39.4026 46.1542 39.267 46.0534 39.0672C45.967 38.8532 45.9238 38.5321 45.9238 38.104V28.1933C45.9238 27.7652 45.967 27.4512 46.0534 27.2515C46.1542 27.0517 46.3342 26.9161 46.5934 26.8448C46.8526 26.7591 47.2558 26.7163 47.803 26.7163C47.8462 26.7163 47.8678 26.6735 47.8678 26.5879C47.8678 26.5023 47.8462 26.4595 47.803 26.4595L46.7446 26.4809C46.1398 26.5094 45.643 26.5237 45.2542 26.5237C44.8222 26.5237 44.2894 26.5094 43.6558 26.4809L42.6406 26.4595C42.5974 26.4595 42.5758 26.5023 42.5758 26.5879C42.5758 26.6735 42.5974 26.7163 42.6406 26.7163C43.2022 26.7163 43.6126 26.7591 43.8718 26.8448C44.131 26.9304 44.3038 27.0802 44.3902 27.2943C44.491 27.4941 44.5414 27.808 44.5414 28.2361V32.6456H36.247V28.2361C36.247 27.808 36.2902 27.4941 36.3766 27.2943C36.4774 27.0802 36.6574 26.9304 36.9166 26.8448C37.1902 26.7591 37.6006 26.7163 38.1478 26.7163C38.1766 26.7163 38.191 26.6735 38.191 26.5879C38.191 26.5023 38.1766 26.4595 38.1478 26.4595L37.111 26.4809C36.4774 26.5094 35.9518 26.5237 35.5342 26.5237C35.1742 26.5237 34.6918 26.5094 34.087 26.4809L32.9854 26.4595C32.9566 26.4595 32.9422 26.5023 32.9422 26.5879C32.9422 26.6735 32.9566 26.7163 32.9854 26.7163C33.5326 26.7163 33.9358 26.7591 34.195 26.8448C34.4542 26.9161 34.627 27.0517 34.7134 27.2515C34.8142 27.4512 34.8646 27.7652 34.8646 28.1933V38.104C34.8646 38.5321 34.8142 38.8532 34.7134 39.0672C34.627 39.267 34.447 39.4026 34.1734 39.4739C33.9142 39.5453 33.511 39.581 32.9638 39.581C32.935 39.581 32.9206 39.6238 32.9206 39.7094C32.9206 39.795 32.935 39.8378 32.9638 39.8378C33.4246 39.8378 33.7846 39.8307 34.0438 39.8164L35.5342 39.795L37.0894 39.8164C37.3486 39.8307 37.7014 39.8378 38.1478 39.8378C38.1766 39.8378 38.191 39.795 38.191 39.7094C38.191 39.6238 38.1766 39.581 38.1478 39.581C37.5862 39.581 37.1758 39.5453 36.9166 39.4739C36.6574 39.4026 36.4774 39.267 36.3766 39.0672C36.2902 38.8532 36.247 38.5321 36.247 38.104V33.0951H44.5414V38.104C44.5414 38.5321 44.491 38.8532 44.3902 39.0672C44.3038 39.267 44.131 39.4026 43.8718 39.4739C43.6126 39.5453 43.2022 39.581 42.6406 39.581C42.5974 39.581 42.5758 39.6238 42.5758 39.7094C42.5758 39.795 42.5974 39.8378 42.6406 39.8378C43.0726 39.8378 43.411 39.8307 43.6558 39.8164L45.2542 39.795L46.7446 39.8164C47.0038 39.8307 47.3566 39.8378 47.803 39.8378C47.8462 39.8378 47.8678 39.795 47.8678 39.7094Z"/>
</symbol><symbol id="icon-menu" viewBox="0 0 25 18">
<path fill-rule="evenodd" clip-rule="evenodd" d="M25 2H0V0H25V2ZM25 10H0V8H25V10ZM25 18H0V16H25V18Z"/>
</symbol><symbol id="icon-search" viewBox="0 0 16 16">
<path d="M12.6266 11.5128L16 14.8855L14.8855 16L11.5128 12.6266C10.2579 13.6325 8.69706 14.1797 7.08871 14.1774C3.17574 14.1774 0 11.0017 0 7.08871C0 3.17574 3.17574 0 7.08871 0C11.0017 0 14.1774 3.17574 14.1774 7.08871C14.1797 8.69706 13.6325 10.2579 12.6266 11.5128ZM11.0466 10.9284C12.0462 9.90047 12.6044 8.52254 12.6021 7.08871C12.6021 4.04214 10.1345 1.57527 7.08871 1.57527C4.04214 1.57527 1.57527 4.04214 1.57527 7.08871C1.57527 10.1345 4.04214 12.6021 7.08871 12.6021C8.52254 12.6044 9.90047 12.0462 10.9284 11.0466L11.0466 10.9284Z"/>
</symbol></svg>

<svg xmlns="http://www.w3.org/2000/svg" xmlns:xlink="http://www.w3.org/1999/xlink"><symbol id="icon-cart" viewBox="0 0 20 18"><path fill-rule="evenodd" clip-rule="evenodd" d="M0 1a1 1 0 011-1h18a1 1 0 011 1v16a1 1 0 01-1 1H1a1 1 0 01-1-1V1zm2 1v14h16V2H2zm4 2a1 1 0 011 1 3 3 0 106 0 1 1 0 112 0A5 5 0 015 5a1 1 0 011-1z"/></symbol><symbol id="icon-logo" viewBox="0 0 66 66"><path fill-rule="evenodd" clip-rule="evenodd" d="M10.126 10.12L33 .643l22.874 9.475L65.35 33l-9.477 22.88L33 65.357 10.126 55.88.65 33l9.477-22.88zM33 0l23.334 9.665L66 33l-9.666 23.334L33 66 9.665 56.334 0 33 9.665 9.665 33 0zm-4.433 26.417c-.619-.129-1.382-.193-2.29-.193-1.483 0-2.822.285-4.017.856-1.18.571-2.11 1.377-2.786 2.419-.677 1.027-1.016 2.212-1.016 3.553 0 1.385.332 2.612.994 3.682.662 1.07 1.584 1.905 2.765 2.505 1.195.585 2.549.877 4.06.877.85 0 1.599-.071 2.247-.214a9.692 9.692 0 002.117-.75.633.633 0 00.173-.149c.028-.043.05-.15.064-.321l.216-2.355c0-.042-.05-.064-.15-.064-.073 0-.109.014-.109.043-.389 1.17-.95 2.04-1.685 2.611-.734.571-1.692.857-2.872.857a5.68 5.68 0 01-3.09-.9c-.935-.599-1.684-1.412-2.246-2.44-.547-1.041-.82-2.183-.82-3.424 0-1.3.252-2.434.756-3.404.504-.985 1.216-1.74 2.138-2.269.922-.528 1.987-.792 3.197-.792 2.304 0 3.787 1.192 4.45 3.575.014.043.057.064.129.064.086-.014.13-.043.13-.086l-.26-2.547a2.893 2.893 0 00-.064-.32c-.015-.044-.072-.094-.173-.15a7.457 7.457 0 00-1.858-.664zm19.3 13.292c0-.085-.02-.128-.064-.128-.547 0-.95-.036-1.21-.107-.259-.071-.439-.207-.54-.407-.086-.214-.13-.535-.13-.963v-9.91c0-.429.044-.743.13-.942.101-.2.281-.336.54-.407.26-.086.663-.129 1.21-.129.043 0 .065-.043.065-.128 0-.086-.022-.129-.065-.129l-1.058.022c-.605.028-1.102.043-1.49.043-.433 0-.966-.015-1.6-.043l-1.014-.022c-.044 0-.065.043-.065.129 0 .085.021.128.065.128.561 0 .972.043 1.23.129.26.085.433.235.52.45.1.2.15.513.15.941v4.41h-8.294v-4.41c0-.428.043-.742.13-.942.1-.214.28-.364.54-.45.273-.085.684-.128 1.23-.128.03 0 .044-.043.044-.128 0-.086-.014-.129-.043-.129l-1.037.022c-.634.028-1.16.043-1.577.043-.36 0-.842-.015-1.447-.043l-1.102-.022c-.028 0-.043.043-.043.129 0 .085.015.128.043.128.548 0 .95.043 1.21.129.26.071.432.207.518.407.101.2.152.513.152.941v9.911c0 .428-.05.75-.152.963-.086.2-.266.336-.54.407-.259.071-.662.107-1.21.107-.028 0-.042.043-.042.128 0 .086.014.129.043.129.46 0 .82-.007 1.08-.022l1.49-.021 1.555.021c.26.015.612.022 1.059.022.029 0 .043-.043.043-.129 0-.085-.014-.128-.043-.128-.562 0-.972-.036-1.231-.107-.26-.071-.44-.207-.54-.407-.087-.214-.13-.535-.13-.963v-5.009h8.294v5.009c0 .428-.05.75-.15.963-.087.2-.26.336-.52.407-.258.071-.669.107-1.23.107-.044 0-.065.043-.065.128 0 .086.021.129.065.129.432 0 .77-.007 1.015-.022l1.598-.021 1.49.021c.26.015.613.022 1.059.022.043 0 .065-.043.065-.129z"/></symbol><symbol id="icon-menu" viewBox="0 0 25 18"><path fill-rule="evenodd" clip-rule="evenodd" d="M25 2H0V0h25v2zm0 8H0V8h25v2zm0 8H0v-2h25v2z"/></symbol><symbol id="icon-search" viewBox="0 0 16 16"><path d="M12.627 11.513L16 14.886 14.886 16l-3.373-3.373a7.057 7.057 0 01-4.424 1.55A7.091 7.091 0 010 7.09 7.091 7.091 0 017.089 0a7.091 7.091 0 017.088 7.089 7.057 7.057 0 01-1.55 4.424zm-1.58-.585a5.495 5.495 0 001.555-3.84A5.512 5.512 0 007.09 1.576 5.511 5.511 0 001.575 7.09a5.512 5.512 0 005.514 5.513 5.495 5.495 0 003.84-1.555l.118-.119z"/></symbol></svg>
